X: 2
T: The Sound Of Sleat
R: reel
M: 4/4
L: 1/8
K: Dmaj
|: FAAB d2 d2 | ~e3 d ef f2 | ~A3 B defd | efdB BA A2 :|~f3 e f2 af | e2 de fe e2 | f2 df ~f2 af | efdB BA A2 |~f3 e f2 af | e2 de feeB| d2 dB deed | efdB BA A2 |]


Tune 1101	Setting 27837

